src/assets/filled/DirectNotification.svg

<?xml version="1.0" encoding="UTF-8"?>
<svg width="24" height="24" viewBox="0 0 24 24" xmlns="http://www.w3.org/2000/svg">
 <path d="m19 8c1.6569 0 3-1.3432 3-3s-1.3431-3-3-3-3 1.3432-3 3 1.3431 3 3 3z"/>
 <path d="m20.34 12.72h-3.31c-0.93 0-1.76 0.52-2.18 1.34l-0.8 1.58c-0.19 0.38-0.57 0.61-0.99 0.61h-3.11c-0.29 0-0.72-0.06-0.99-0.62l-0.79-1.57c-0.42-0.83-1.25-1.35-2.18-1.35h-3.33c-0.36 0.01-0.66 0.31-0.66 0.67v3.09c0 3.47 2.07 5.53 5.53 5.53h7.96c3.26 0 5.27-1.79 5.51-4.96v-3.66c0-0.36-0.3-0.66-0.66-0.66z"/>
 <path d="m21 10.4v0.93c-0.21-0.07-0.43-0.11-0.66-0.11h-3.31c-1.5 0-2.85 0.83-3.51 2.17l-0.7 1.37h-2.63l-0.68-1.36c-0.68-1.35-2.02-2.18-3.52-2.18h-3.33c-0.23 0-0.45 0.04-0.66 0.11v-2.81c0-3.05 2.47-5.52 5.52-5.52h6.08c0.64 0 1.1 0.58 0.98 1.2-0.16 0.8-0.09 1.67 0.3 2.59 0.45 1.04 1.29 1.88 2.33 2.33 0.92 0.39 1.79 0.46 2.59 0.3 0.62-0.12 1.2 0.34 1.2 0.98z"/>
</svg>

<svg width="24" height="24" viewBox="0 0 24 24"  xmlns="http://www.w3.org/2000/svg">
<path d="M19 8C20.6569 8 22 6.65685 22 5C22 3.34315 20.6569 2 19 2C17.3431 2 16 3.34315 16 5C16 6.65685 17.3431 8 19 8Z" />
<path d="M20.34 12.72H17.03C16.1 12.72 15.27 13.24 14.85 14.06L14.05 15.64C13.86 16.02 13.48 16.25 13.06 16.25H9.95C9.66 16.25 9.23 16.19 8.96 15.63L8.17 14.06C7.75 13.23 6.92 12.71 5.99 12.71H2.66C2.3 12.72 2 13.02 2 13.38V16.47C2 19.94 4.07 22 7.53 22H15.49C18.75 22 20.76 20.21 21 17.04V13.38C21 13.02 20.7 12.72 20.34 12.72Z" />
<path d="M21 10.4V11.33C20.79 11.26 20.57 11.22 20.34 11.22H17.03C15.53 11.22 14.18 12.05 13.52 13.39L12.82 14.76H10.19L9.51 13.4C8.83 12.05 7.49 11.22 5.99 11.22H2.66C2.43 11.22 2.21 11.26 2 11.33V8.52C2 5.47 4.47 3 7.52 3H13.6C14.24 3 14.7 3.58 14.58 4.2C14.42 5 14.49 5.87 14.88 6.79C15.33 7.83 16.17 8.67 17.21 9.12C18.13 9.51 19 9.58 19.8 9.42C20.42 9.3 21 9.76 21 10.4Z" />
</svg>
